app/img/product/ic_automated.svg

<svg width="29" height="24" viewBox="0 0 29 24" fill="none" xmlns="http://www.w3.org/2000/svg">
    <path d="M13.5596 15.3415C13.8647 15.3415 14.1698 15.22 14.3834 14.977L18.5027 10.5415C18.9299 10.0858 18.8993 9.38709 18.4417 8.96177C17.984 8.53646 17.2822 8.56684 16.855 9.02253L13.5596 12.5466L12.1865 11.058C11.7593 10.6023 11.0575 10.5719 10.5998 10.9972C10.1421 11.4225 10.1116 12.1213 10.5388 12.577L12.7662 14.9466C12.9493 15.22 13.2544 15.3415 13.5596 15.3415Z"
          fill="#7CEA57"/>
    <path d="M20.8216 19.443C19.0518 20.9316 16.8243 21.7518 14.5054 21.7518C9.10455 21.7518 4.71067 17.3771 4.71067 11.9999V11.3923H6.11427C6.48043 11.3923 6.81607 11.1797 6.99915 10.8759C7.18223 10.5417 7.15171 10.1468 6.96863 9.84297L4.43605 5.8936C4.0699 5.31639 3.09348 5.31639 2.72732 5.8936L0.164228 9.84297C-0.0493634 10.1468 -0.0493634 10.5417 0.133715 10.8759C0.316793 11.1797 0.652436 11.3923 1.01859 11.3923H2.42219V11.9999C2.42219 18.6227 7.823 23.9999 14.4748 23.9999C17.3126 23.9999 20.0892 22.9974 22.2557 21.1746C22.7439 20.7797 22.8049 20.0505 22.3777 19.5949C22.0116 19.1088 21.3098 19.048 20.8216 19.443Z"
          fill="#022AF0"/>
    <path d="M28.8771 13.124C28.694 12.7899 28.3584 12.6076 27.9922 12.6076H26.5886V12C26.5886 5.37721 21.1878 0 14.536 0C11.6982 0 8.92156 1.00253 6.75513 2.82531C6.26693 3.22025 6.2059 3.94936 6.63308 4.40506C7.02975 4.89113 7.76207 4.95189 8.21976 4.52658C9.98952 3.03797 12.217 2.21772 14.536 2.21772C19.9368 2.21772 24.3306 6.5924 24.3306 11.9696V12.5772H22.927C22.5609 12.5772 22.2252 12.7899 22.0422 13.0937C21.8591 13.4278 21.8896 13.8228 22.0727 14.1266L24.6053 18.0759C24.7883 18.3797 25.124 18.5316 25.4596 18.5316C25.7953 18.5316 26.1309 18.3493 26.314 18.0759L28.8466 14.1266C29.0297 13.8531 29.0602 13.4582 28.8771 13.124Z"
          fill="#022AF0"/>
</svg>

<svg width="29" height="24" fill="none" xmlns="http://www.w3.org/2000/svg"><path d="M13.56 15.341c.305 0 .61-.121.823-.364l4.12-4.436a1.107 1.107 0 0 0-.061-1.58 1.119 1.119 0 0 0-1.587.062l-3.295 3.524-1.373-1.489a1.119 1.119 0 0 0-1.587-.06 1.107 1.107 0 0 0-.061 1.579l2.227 2.37c.183.273.488.395.794.395Z" fill="#7CEA57"/><path d="M20.822 19.443a9.799 9.799 0 0 1-6.317 2.309c-5.4 0-9.794-4.375-9.794-9.752v-.608h1.403c.366 0 .702-.212.885-.516.183-.334.153-.73-.03-1.033l-2.533-3.95c-.366-.577-1.343-.577-1.709 0L.164 9.844c-.213.304-.213.699-.03 1.033.183.304.518.516.885.516h1.403V12c0 6.623 5.401 12 12.053 12 2.838 0 5.614-1.003 7.78-2.825.489-.395.55-1.125.123-1.58-.366-.486-1.068-.547-1.556-.152ZM28.877 13.124a.99.99 0 0 0-.885-.516H26.59V12c0-6.623-5.401-12-12.053-12a12.123 12.123 0 0 0-7.78 2.825 1.084 1.084 0 0 0-.123 1.58 1.095 1.095 0 0 0 1.587.122 9.799 9.799 0 0 1 6.316-2.31c5.4 0 9.795 4.375 9.795 9.753v.607h-1.404c-.366 0-.702.213-.885.517-.183.334-.152.729.03 1.033l2.533 3.949c.183.304.519.456.855.456.335 0 .67-.183.854-.456l2.533-3.95a.98.98 0 0 0 .03-1.002Z" fill="#022AF0"/></svg>
